!!!!SEGMENT: pl-wnifc--13846--065_anonim--piesni-polskie-i-ruskie-ludu-galicyjskiego-65-oj-parobecek-ci-ja.krn
!!!kernsource:
!!!cenid: 18xx:3287
!!!COM: Anonim
!!!COM-rismid: pe30004985
!!!CDT:
!!!CNT:
!!!GTL: Pieśni polskie i ruskie ludu galicyjskiego
!!!OTL: 65. Oj parobecek ci ja
!!!PDT: 1833
!!!AGN:
!!!SMS-siglum: PL-Wnifc
!!!SMS-shelfmark: 13846
!!!SMS-shelfwork: 065 G
!!!SMS-variant:
!!!SMS-altvar:
!!!NIFC-rismid: 1001037177
!!!URL-scan: http://repozytorium.nifc.pl/skany/pl-wnifc-nut--13846
!!!ONB-nifc:
!!!OMD: Krakowiak.
!!!key: A
**kern	**kern	**dynam	**kern	**text
*part2	*part2	*part2	*part1	*part1
*staff3	*staff2	*	*staff1	*staff1
*I"Fortepian	*I"Fortepian	*	*I"Głos	*
*Ipiano	*Ipiano	*	*Ivox	*
*ICklav	*ICklav	*	*ICvox	*
*IGacmp	*IGacmp	*	*IGsolo	*
*clefF4	*clefG2	*	*clefG2	*
*k[f#c#g#]	*k[f#c#g#]	*	*k[f#c#g#]	*
*A:	*A:	*	*A:	*
*M2/4	*M2/4	*	*M2/4	*
=1	=1	=1	=1	=1
*coll8ba	*	*	*	*
!LO:TX:b:t=8	!	!	!LO:TX:a:t=D.c.10.	!
4AA/	8e/	.	8e/	Oj
.	4a/	sf	4a/	pa-
*Xcoll8ba	*	*	*	*
4E\ 4A\ 4c#\	.	.	.	.
.	16a/LL	.	(16a/LL	-ro-
.	16g#/JJ	.	16g#/JJ)	.
=2	=2	=2	=2	=2
*coll8ba	*	*	*	*
!LO:TX:b:t=8	!	!	!	!
4AA/	8a/L	.	8a/	be-
.	8g#/ 8b/	.	8b/	-cek
*Xcoll8ba	*	*	*	*
4E\ 4A\ 4c#\	8a/ 8cc#/	.	8cc#/	ci
.	8b\J 8dd\	.	8dd/	ja,
=3	=3	=3	=3	=3
*coll8ba	*	*	*	*
!LO:TX:b:t=8	!	!	!	!
4AA/	8cc#\L 8ee\	.	8ee\	mam
.	8cc#\J 8ee\	.	8ee\	ci
*Xcoll8ba	*	*	*	*
4E\ 4A\ 4c#\	8.dd\^<L 8.ff#\	.	(8.ff#\L	pług
.	16cc#\Jk 16ee\	.	16ee\Jk)	.
!!LO:LB:g=original
=4	=4	=4	=4	=4
*coll8ba	*	*	*	*
!LO:TX:b:t=8	!	!	!	!
4EE/	8cc#\ 8ee\	.	8ee\	mam
.	4b\^< 4dd\	.	4dd\	wo-
*Xcoll8ba	*	*	*	*
4E\ 4G#\ 4B\ 4d\	.	.	.	.
.	8a/ 8cc#/	.	8cc#\	-lą
=5	=5	=5	=5	=5
4EE/	8g#\ 8b\	.	8b\	pra-
.	8b\L	.	8b\	-co-
4E\ 4G#\ 4B\ 4d\	8b\J	.	8b\	-wał-
.	8qcc#/	.	.	.
.	(16b\LL	.	(16b\LL	-bym
.	16a#X\JJ)	.	16a#X\JJ)	.
=6	=6	=6	=6	=6
4EE/	8b\L	.	8b\	pię-
.	8b\J	.	8b\	-kną
4E\ 4G#\ 4B\ 4d\	8g#/L	.	8g#/	pra-
.	8e/J	.	8e/	-cę
!!LO:PB:g=original
=7	=7	=7	=7	=7
4EE/	8ee\	.	8ee\	by-
.	(16dd#X\LL	.	(16dd#X\LL	-le-
.	16ff#\JJ)	.	16ff#\JJ)	.
4E\ 4G#\ 4B\	8.ee\L	.	(8.ee\	bym
.	16ddn\Jk	.	16ddn\)	.
=8	=8	=8	=8	=8
4AA/	(16b\LL 16dd\	.	(16dd\LL	miał
.	16a\JJ) 16cc#\	.	16cc#\JJ)	.
.	4a\ 4cc#\	.	4cc#\	ro-
4E\ 4A\ 4c#\	.	.	.	.
.	8e/	.	8e/	-lą
!!LO:LB:g=original
==	==	==	==	==
*-	*-	*-	*-	*-
!!!system-decoration: s1,{(s2,s3)}
!!!RDF**kern: < = below
!!!RDF**kern: > = above
!!!AIN: 1 piano 1 vox
!!!ENC: Marta Chmielewska
!!!END: 2021-11-11
